src/assets/watchlist/buttons/watchlist.svg

<svg width="18" height="16" viewBox="0 0 18 16" fill="none" xmlns="http://www.w3.org/2000/svg">
<path d="M1.5 0.75C1.08579 0.75 0.75 1.08579 0.75 1.5C0.75 1.91421 1.08579 2.25 1.5 2.25H16.5C16.9142 2.25 17.25 1.91421 17.25 1.5C17.25 1.08579 16.9142 0.75 16.5 0.75H1.5Z" fill="white"/>
<path d="M1.5 4.75C1.08579 4.75 0.75 5.08579 0.75 5.5C0.75 5.91421 1.08579 6.25 1.5 6.25H16.5C16.9142 6.25 17.25 5.91421 17.25 5.5C17.25 5.08579 16.9142 4.75 16.5 4.75H1.5Z" fill="white"/>
<path d="M0.75 9.5C0.75 9.08579 1.08579 8.75 1.5 8.75H7.5C7.91421 8.75 8.25 9.08579 8.25 9.5C8.25 9.91421 7.91421 10.25 7.5 10.25H1.5C1.08579 10.25 0.75 9.91421 0.75 9.5Z" fill="white"/>
<path d="M1.5 12.75C1.08579 12.75 0.75 13.0858 0.75 13.5C0.75 13.9142 1.08579 14.25 1.5 14.25H7.5C7.91421 14.25 8.25 13.9142 8.25 13.5C8.25 13.0858 7.91421 12.75 7.5 12.75H1.5Z" fill="white"/>
<path d="M13.5 7.75C13.9142 7.75 14.25 8.08579 14.25 8.5V10.75H16.5C16.9142 10.75 17.25 11.0858 17.25 11.5C17.25 11.9142 16.9142 12.25 16.5 12.25H14.25V14.5C14.25 14.9142 13.9142 15.25 13.5 15.25C13.0858 15.25 12.75 14.9142 12.75 14.5V12.25H10.5C10.0858 12.25 9.75 11.9142 9.75 11.5C9.75 11.0858 10.0858 10.75 10.5 10.75H12.75V8.5C12.75 8.08579 13.0858 7.75 13.5 7.75Z" fill="white"/>
</svg>

<svg width="18" height="16" fill="none" xmlns="http://www.w3.org/2000/svg"><path d="M1.5.75a.75.75 0 0 0 0 1.5h15a.75.75 0 0 0 0-1.5h-15zM1.5 4.75a.75.75 0 0 0 0 1.5h15a.75.75 0 0 0 0-1.5h-15zM.75 9.5a.75.75 0 0 1 .75-.75h6a.75.75 0 0 1 0 1.5h-6a.75.75 0 0 1-.75-.75zM1.5 12.75a.75.75 0 0 0 0 1.5h6a.75.75 0 0 0 0-1.5h-6zM13.5 7.75a.75.75 0 0 1 .75.75v2.25h2.25a.75.75 0 0 1 0 1.5h-2.25v2.25a.75.75 0 0 1-1.5 0v-2.25H10.5a.75.75 0 0 1 0-1.5h2.25V8.5a.75.75 0 0 1 .75-.75z" fill="#fff"/></svg>
